X: 31
T:Blow The Wind Southerly. JMT.031
M:6/8
L:1/8
Q:100
S:J.Moore,Tyneside,1841.(24a)
R:Air
O:England
A:Northumbria
Z:vmp.Chris Partington
K:D
d/e/|f>ed AFA| BGB AFd/e/|f>ed AFA|Bdcd2:|!
|:a|f2ae2a|dedc2a|f2ae2a|^gfga2a|!
b2ba2a|g>fg~f2d/e/|fed Bgb|a2cd2:||
